public/img/bios/milo-m.svg

<svg enable-background="new 0 0 66 66" viewBox="0 0 66 66" xmlns="http://www.w3.org/2000/svg" xmlns:xlink="http://www.w3.org/1999/xlink"><mask id="a" height="58" maskUnits="userSpaceOnUse" width="60" x="3" y="5"><path d="m10 0h46c5.5 0 10 4.5 10 10v46c0 5.5-4.5 10-10 10h-46c-5.5 0-10-4.5-10-10v-46c0-5.5 4.5-10 10-10z" fill="#c4c4c4"/></mask><path d="m0 0h66v66h-66z" fill="#263238"/><g mask="url(#a)"><path d="m3 5h10v4h-10z" fill="#c792ea" opacity=".7"/><path d="m15 5h32v4h-32z" fill="#eff" opacity=".7"/><path d="m49 5h2v4h-2z" fill="#89ddf3" opacity=".7"/><path d="m53 5h8v4h-8z" fill="#82aaff" opacity=".7"/><path d="m61 5h2v4h-2z" fill="#89ddf3" opacity=".7"/><path d="m11 11h8v4h-8z" fill="#eff" opacity=".7"/><path d="m19 11h2v4h-2z" fill="#89ddf3" opacity=".7"/><path d="m23 11h14v4h-14z" fill="#82aaff" opacity=".7"/><path d="m37 11h4v4h-4z" fill="#89ddf3" opacity=".7"/><path d="m41 11h22v4h-22z" fill="#c3e88d" opacity=".7"/><path d="m11 17h22v4h-22z" fill="#82aaff" opacity=".7"/><path d="m33 17h2v4h-2z" fill="#89ddf3" opacity=".7"/><path d="m37 17h4v4h-4z" fill="#89ddf3" opacity=".7"/><path d="m43 17h4v4h-4z" fill="#c792ea" opacity=".7"/><path d="m49 17h14v4h-14z" fill="#eff" opacity=".7"/><path d="m11 23h16v4h-16z" fill="#eff" opacity=".7"/><path d="m27 23h2v4h-2z" fill="#89ddf3" opacity=".7"/><path d="m31 23h2v4h-2z" fill="#89ddf3" opacity=".7"/><path d="m19 29h16v4h-16z" fill="#82aaff" opacity=".7"/><path d="m35 29h2v4h-2z" fill="#89ddf3" opacity=".7"/><path d="m39 29h4v4h-4z" fill="#89ddf3" opacity=".7"/><path d="m45 29h4v4h-4z" fill="#c792ea" opacity=".7"/><path d="m51 29h12v4h-12z" fill="#eff" opacity=".7"/><path d="m19 35h16v4h-16z" fill="#82aaff" opacity=".7"/><path d="m35 35h2v4h-2z" fill="#89ddf3" opacity=".7"/><path d="m39 35h4v4h-4z" fill="#89ddf3" opacity=".7"/><path d="m45 35h4v4h-4z" fill="#c792ea" opacity=".7"/><path d="m51 35h12v4h-12z" fill="#eff" opacity=".7"/><path d="m19 41h18v4h-18z" fill="#eff" opacity=".7"/><path d="m37 41h2v4h-2z" fill="#89ddf3" opacity=".7"/><path d="m11 47h4v4h-4z" fill="#89ddf3" opacity=".7"/><path d="m11 53h16v4h-16z" fill="#eff" opacity=".7"/><path d="m3 59h6v4h-6z" fill="#89ddf3" opacity=".7"/></g></svg>

<svg width="66" height="66" viewBox="0 0 66 66" fill="none" xmlns="http://www.w3.org/2000/svg">
<mask id="mask0" mask-type="alpha" maskUnits="userSpaceOnUse" x="0" y="0" width="66" height="66">
<rect width="66" height="66" rx="10" fill="#C4C4C4"/>
</mask>
<g mask="url(#mask0)">
<rect width="66" height="66" fill="#263238"/>
<rect width="66" height="66" fill="#263238"/>
<path opacity="0.7" d="M3 5H13V9H3V5Z" fill="#C792EA"/>
<path opacity="0.7" d="M15 5H47V9H15V5Z" fill="#EEFFFF"/>
<path opacity="0.7" d="M49 5H51V9H49V5Z" fill="#89DDF3"/>
<path opacity="0.7" d="M53 5H61V9H53V5Z" fill="#82AAFF"/>
<path opacity="0.7" d="M61 5H63V9H61V5Z" fill="#89DDF3"/>
<path opacity="0.7" d="M11 11H19V15H11V11Z" fill="#EEFFFF"/>
<path opacity="0.7" d="M19 11H21V15H19V11Z" fill="#89DDF3"/>
<path opacity="0.7" d="M23 11H37V15H23V11Z" fill="#82AAFF"/>
<path opacity="0.7" d="M37 11H41V15H37V11Z" fill="#89DDF3"/>
<path opacity="0.7" d="M41 11H63V15H41V11Z" fill="#C3E88D"/>
<path opacity="0.7" d="M11 17H33V21H11V17Z" fill="#82AAFF"/>
<path opacity="0.7" d="M33 17H35V21H33V17Z" fill="#89DDF3"/>
<path opacity="0.7" d="M37 17H41V21H37V17Z" fill="#89DDF3"/>
<path opacity="0.7" d="M43 17H47V21H43V17Z" fill="#C792EA"/>
<path opacity="0.7" d="M49 17H63V21H49V17Z" fill="#EEFFFF"/>
<path opacity="0.7" d="M11 23H27V27H11V23Z" fill="#EEFFFF"/>
<path opacity="0.7" d="M27 23H29V27H27V23Z" fill="#89DDF3"/>
<path opacity="0.7" d="M31 23H33V27H31V23Z" fill="#89DDF3"/>
<path opacity="0.7" d="M19 29H35V33H19V29Z" fill="#82AAFF"/>
<path opacity="0.7" d="M35 29H37V33H35V29Z" fill="#89DDF3"/>
<path opacity="0.7" d="M39 29H43V33H39V29Z" fill="#89DDF3"/>
<path opacity="0.7" d="M45 29H49V33H45V29Z" fill="#C792EA"/>
<path opacity="0.7" d="M51 29H63V33H51V29Z" fill="#EEFFFF"/>
<path opacity="0.7" d="M19 35H35V39H19V35Z" fill="#82AAFF"/>
<path opacity="0.7" d="M35 35H37V39H35V35Z" fill="#89DDF3"/>
<path opacity="0.7" d="M39 35H43V39H39V35Z" fill="#89DDF3"/>
<path opacity="0.7" d="M45 35H49V39H45V35Z" fill="#C792EA"/>
<path opacity="0.7" d="M51 35H63V39H51V35Z" fill="#EEFFFF"/>
<path opacity="0.7" d="M19 41H37V45H19V41Z" fill="#EEFFFF"/>
<path opacity="0.7" d="M37 41H39V45H37V41Z" fill="#89DDF3"/>
<path opacity="0.7" d="M11 47H15V51H11V47Z" fill="#89DDF3"/>
<path opacity="0.7" d="M11 53H27V57H11V53Z" fill="#EEFFFF"/>
<path opacity="0.7" d="M3 59H9V63H3V59Z" fill="#89DDF3"/>
</g>
</svg>
